X:3
T:Irish Whim. Ru1.083
%%VWML:RutherfordVol1-2248-p42-0p42
Z:Transcription by Village Music Project, Steve Mansfield July 2015
F:http://www.village-music-project.org.uk/
F:http://www.vwml.org/record/RutherfordVol1/2248/p42
L:1/8
Q:1/4=100
K:Dm
e2ee2d|^cBA d2c|d2ef3|e2ee2d|^cBAa2g|f2ed3:|
|:dfa dfa|ge^c dfa|fgag2c|dfa dfa|gecf2d|ed^cd3:|
W:Cast off and turn your partner.| Cast off again
W:and turn :| Lead up to the top and Cast off .|.
W:Right Hand and Left :|
|:
T:Maxwill's Rant. Ru1.084
B:Rutherford's Country Dances Vol 1, 1756
Z:village music project, Ruairidh Greig July 2015
M:C|
L:1/8
Q:1/4=100
R:Rant
K:F
d/e/|fFAF EG Gd/e/|fFAcf3d/e/|fFAF EGGF/E/|D2"tr"E2 {DE}F3:|
|:c|"tr"f>gaf g/f/e/d/ cc|f>g fag2-gc|f>g af g/f/e/d/ cf/g/|afgef3:|
W:Hay Contrary sides .| Hay on your own sides :|
W:Cross over and half figure .|. Lead through the
W:3d. Couple and cast up into the 2d. Couples place
W:and turn it out :|
|:
